TV/Source/High Street TV.svg

<svg height="227.60001" viewBox="0 0 466.89998 227.60001" width="466.89999" xmlns="http://www.w3.org/2000/svg"><path d="m466.9 227.6h-153.3v-202.3h153.3zm-146.1-7.3h138.8v-187.8h-138.8z" fill="#b5bd00"/><path d="m420.8 28.9h-7.3c0-11.9-9.9-21.6-22.1-21.6-12.1 0-22 9.7-22 21.6h-7.3c.1-15.9 13.2-28.9 29.4-28.9s29.3 13 29.3 28.9z" fill="#b5bd00"/><path d="m405.9 191.6h7.9l26-59.3h-9.6l-20.2 48.8-20.1-48.8h-9.8zm-42 .6c4.3 0 7.6-.9 10.7-2.5v-7.5c-3.1 1.5-5.7 2-8.7 2-6 0-10-2.6-10-9.8v-34.4h18.9v-7.7h-18.9v-17.7h-8.9v17.7h-8.3v7.7h8.3v35.5c0 12 7.3 16.7 16.9 16.7" fill="#fff"/><path d="m286 192.2c4.3 0 7.6-.9 10.7-2.5v-7.5c-3.1 1.5-5.7 2-8.7 2-6 0-10-2.6-10-9.8v-34.4h18.9v-7.7h-18.9v-17.7h-8.9v17.7h-8.3v7.7h8.3v35.5c.1 12 7.4 16.7 16.9 16.7m-78.4-33.9c1.3-11.4 9.1-19.8 19.4-19.8 11.8 0 18 9.1 19.1 19.8zm0 7.1h47.3c.1-1.4.1-2.3.1-3.1 0-17.3-10.2-31.2-27.8-31.2-16.5 0-28.6 13.7-28.6 30.7 0 18.3 13.4 30.7 29.8 30.7 11.3 0 18.6-4.4 24.6-11l-5.5-4.9c-4.9 5-10.6 8.3-18.8 8.3-10.6 0-19.8-7.1-21.1-19.5m-63.7-7.1c1.3-11.4 9.1-19.8 19.4-19.8 11.8 0 18 9.1 19.1 19.8zm0 7.1h47.3c.1-1.4.1-2.3.1-3.1 0-17.3-10.2-31.2-27.8-31.2-16.5 0-28.6 13.7-28.6 30.7 0 18.3 13.4 30.7 29.8 30.7 11.3 0 18.6-4.4 24.6-11l-5.5-4.9c-4.8 5-10.6 8.3-18.8 8.3-10.6 0-19.8-7.1-21.1-19.5m-44.9 25.8h8.9v-23.4c0-17.7 10.6-27 23.7-27h .7v-9.4c-11.3-.5-20 6.6-24.4 16.4v-15.4h-8.9zm-22.1 1c4.3 0 7.6-.9 10.7-2.5v-7.5c-3.1 1.5-5.7 2-8.7 2-6 0-10-2.6-10-9.8v-34.4h18.9v-7.7h-18.8v-17.7h-8.9v17.7h-8.3v7.7h8.3v35.5c0 12 7.2 16.7 16.8 16.7m-51.9.1c11.9 0 21.2-6.5 21.2-17.6v-.2c0-10.6-9.9-14.1-19.2-16.8-8-2.4-15.4-4.5-15.4-10.1v-.2c0-4.9 4.5-8.5 11.5-8.5 5.8 0 12.1 2.2 17.7 5.7l4-6.6c-6.1-4-14.2-6.5-21.5-6.5-11.8 0-20.3 6.7-20.3 16.8v.2c0 10.8 10.4 14 19.7 16.6 7.9 2.2 14.9 4.4 14.9 10.4v.2c0 5.7-5.2 9.3-12.4 9.3-7 0-14.2-2.7-20.7-7.5l-4.5 6.3c7 5.2 16.4 8.5 25 8.5" fill="#b5bd00"/><path d="m210.9 100.2h20.8v-40.3c0-9.7 5.1-14.7 13-14.7s12.6 5 12.6 14.7v40.2h20.8v-46.6c0-16.6-9.2-26.8-24.9-26.8-10.5 0-16.7 5.5-21.5 11.6v-36.4h-20.8zm-52.9-22.9c-10.1 0-17.8-6.7-17.8-16.7v-.3c0-9.8 7.7-16.7 17.8-16.7s17.9 6.9 17.9 16.7v.3c0 9.8-7.8 16.7-17.9 16.7m-2.4 44.7c14.2 0 24.7-3 31.6-9.7 6.1-6.1 9.3-15.5 9.3-28.4v-55.9h-20.8v9.4c-5.6-6.1-12.3-10.8-23.6-10.8-16.8 0-32.5 12.1-32.5 33.7v.3c0 21.4 15.4 33.7 32.5 33.7 11.1 0 17.8-4.4 23.9-11.7v3.4c0 12.9-6.7 19.7-20.9 19.7-9.7 0-17.2-2.4-24.7-6.6l-7.1 15.3c9.2 4.9 20.4 7.6 32.3 7.6m-69-21.8h20.8v-72.2h-20.8zm-.6-80.1h21.9v-18.2h-21.9zm-81.4 80.1h20.8v-40.3c0-9.7 5.1-14.7 13-14.7s12.6 5 12.6 14.7v40.2h20.8v-46.6c0-16.6-9.2-26.8-24.9-26.8-10.5 0-16.7 5.5-21.5 11.6v-36.4h-20.8z" fill="#fff"/></svg>

<?xml version="1.0" encoding="UTF-8" standalone="no"?>
<svg
   xmlns:dc="http://purl.org/dc/elements/1.1/"
   xmlns:cc="http://creativecommons.org/ns#"
   xmlns:rdf="http://www.w3.org/1999/02/22-rdf-syntax-ns#"
   xmlns:svg="http://www.w3.org/2000/svg"
   xmlns="http://www.w3.org/2000/svg"
   xmlns:sodipodi="http://sodipodi.sourceforge.net/DTD/sodipodi-0.dtd"
   xmlns:inkscape="http://www.inkscape.org/namespaces/inkscape"
   id="Layer_2"
   viewBox="0 0 466.89998 227.60001"
   version="1.1"
   sodipodi:docname="High Street TV.svg"
   width="466.89999"
   height="227.60001"
   inkscape:version="0.92.0 r15299">
  <metadata
     id="metadata23">
    <rdf:RDF>
      <cc:Work
         rdf:about="">
        <dc:format>image/svg+xml</dc:format>
        <dc:type
           rdf:resource="http://purl.org/dc/dcmitype/StillImage" />
        <dc:title></dc:title>
      </cc:Work>
    </rdf:RDF>
  </metadata>
  <defs
     id="defs21" />
  <sodipodi:namedview
     pagecolor="#ffffff"
     bordercolor="#666666"
     borderopacity="1"
     objecttolerance="10"
     gridtolerance="10"
     guidetolerance="10"
     inkscape:pageopacity="0"
     inkscape:pageshadow="2"
     inkscape:window-width="1920"
     inkscape:window-height="1017"
     id="namedview19"
     showgrid="false"
     fit-margin-top="0"
     fit-margin-left="0"
     fit-margin-right="0"
     fit-margin-bottom="0"
     inkscape:zoom="1.4339045"
     inkscape:cx="118.03879"
     inkscape:cy="72.398472"
     inkscape:window-x="-8"
     inkscape:window-y="-8"
     inkscape:window-maximized="1"
     inkscape:current-layer="Layer_2" />
  <style
     id="style2">.st0{fill:#b5bd00}.st1{fill:#fff}</style>
  <path
     class="st0"
     d="M 466.9,227.6 H 313.6 V 25.3 H 466.9 Z M 320.8,220.3 H 459.6 V 32.5 H 320.8 Z"
     id="path4"
     inkscape:connector-curvature="0"
     style="fill:#b5bd00" />
  <path
     class="st0"
     d="m 420.8,28.9 h -7.3 c 0,-11.9 -9.9,-21.6 -22.1,-21.6 -12.1,0 -22,9.7 -22,21.6 h -7.3 C 362.2,13 375.3,0 391.5,0 c 16.2,0 29.3,13 29.3,28.9 z"
     id="path6"
     inkscape:connector-curvature="0"
     style="fill:#b5bd00" />
  <path
     class="st1"
     d="m 405.9,191.6 h 7.9 l 26,-59.3 h -9.6 L 410,181.1 389.9,132.3 h -9.8 z m -42,0.6 c 4.3,0 7.6,-0.9 10.7,-2.5 v -7.5 c -3.1,1.5 -5.7,2 -8.7,2 -6,0 -10,-2.6 -10,-9.8 V 140 h 18.9 v -7.7 H 355.9 V 114.6 H 347 v 17.7 h -8.3 v 7.7 h 8.3 v 35.5 c 0,12 7.3,16.7 16.9,16.7"
     id="path8"
     style="fill:#ffffff;fill-opacity:1"
     inkscape:connector-curvature="0" />
  <path
     class="st0"
     d="m 286,192.2 c 4.3,0 7.6,-0.9 10.7,-2.5 v -7.5 c -3.1,1.5 -5.7,2 -8.7,2 -6,0 -10,-2.6 -10,-9.8 V 140 h 18.9 v -7.7 H 278 v -17.7 h -8.9 v 17.7 h -8.3 v 7.7 h 8.3 v 35.5 c 0.1,12 7.4,16.7 16.9,16.7 m -78.4,-33.9 c 1.3,-11.4 9.1,-19.8 19.4,-19.8 11.8,0 18,9.1 19.1,19.8 z m 0,7.1 h 47.3 c 0.1,-1.4 0.1,-2.3 0.1,-3.1 0,-17.3 -10.2,-31.2 -27.8,-31.2 -16.5,0 -28.6,13.7 -28.6,30.7 0,18.3 13.4,30.7 29.8,30.7 11.3,0 18.6,-4.4 24.6,-11 l -5.5,-4.9 c -4.9,5 -10.6,8.3 -18.8,8.3 -10.6,0 -19.8,-7.1 -21.1,-19.5 m -63.7,-7.1 c 1.3,-11.4 9.1,-19.8 19.4,-19.8 11.8,0 18,9.1 19.1,19.8 z m 0,7.1 h 47.3 c 0.1,-1.4 0.1,-2.3 0.1,-3.1 0,-17.3 -10.2,-31.2 -27.8,-31.2 -16.5,0 -28.6,13.7 -28.6,30.7 0,18.3 13.4,30.7 29.8,30.7 11.3,0 18.6,-4.4 24.6,-11 l -5.5,-4.9 c -4.8,5 -10.6,8.3 -18.8,8.3 -10.6,0 -19.8,-7.1 -21.1,-19.5 M 99,191.2 h 8.9 v -23.4 c 0,-17.7 10.6,-27 23.7,-27 h 0.7 v -9.4 c -11.3,-0.5 -20,6.6 -24.4,16.4 V 132.4 H 99 Z m -22.1,1 c 4.3,0 7.6,-0.9 10.7,-2.5 v -7.5 c -3.1,1.5 -5.7,2 -8.7,2 -6,0 -10,-2.6 -10,-9.8 V 140 h 18.9 v -7.7 H 69 v -17.7 h -8.9 v 17.7 h -8.3 v 7.7 h 8.3 v 35.5 c 0,12 7.2,16.7 16.8,16.7 M 25,192.3 c 11.9,0 21.2,-6.5 21.2,-17.6 v -0.2 c 0,-10.6 -9.9,-14.1 -19.2,-16.8 -8,-2.4 -15.4,-4.5 -15.4,-10.1 v -0.2 c 0,-4.9 4.5,-8.5 11.5,-8.5 5.8,0 12.1,2.2 17.7,5.7 l 4,-6.6 C 38.7,134 30.6,131.5 23.3,131.5 11.5,131.5 3,138.2 3,148.3 v 0.2 c 0,10.8 10.4,14 19.7,16.6 7.9,2.2 14.9,4.4 14.9,10.4 v 0.2 c 0,5.7 -5.2,9.3 -12.4,9.3 -7,0 -14.2,-2.7 -20.7,-7.5 L 0,183.8 c 7,5.2 16.4,8.5 25,8.5"
     id="path10"
     inkscape:connector-curvature="0"
     style="fill:#b5bd00" />
  <path
     class="st1"
     d="m 210.9,100.2 h 20.8 V 59.9 c 0,-9.7 5.1,-14.7 13,-14.7 7.9,0 12.6,5 12.6,14.7 v 40.2 h 20.8 V 53.5 c 0,-16.6 -9.2,-26.8 -24.9,-26.8 -10.5,0 -16.7,5.5 -21.5,11.6 V 1.9 H 210.9 Z M 158,77.3 c -10.1,0 -17.8,-6.7 -17.8,-16.7 v -0.3 c 0,-9.8 7.7,-16.7 17.8,-16.7 10.1,0 17.9,6.9 17.9,16.7 v 0.3 c 0,9.8 -7.8,16.7 -17.9,16.7 m -2.4,44.7 c 14.2,0 24.7,-3 31.6,-9.7 6.1,-6.1 9.3,-15.5 9.3,-28.4 V 28 h -20.8 v 9.4 c -5.6,-6.1 -12.3,-10.8 -23.6,-10.8 -16.8,0 -32.5,12.1 -32.5,33.7 v 0.3 c 0,21.4 15.4,33.7 32.5,33.7 11.1,0 17.8,-4.4 23.9,-11.7 V 86 c 0,12.9 -6.7,19.7 -20.9,19.7 -9.7,0 -17.2,-2.4 -24.7,-6.6 l -7.1,15.3 c 9.2,4.9 20.4,7.6 32.3,7.6 m -69,-21.8 h 20.8 V 28 H 86.6 Z M 86,20.1 h 21.9 V 1.9 H 86 Z M 4.6,100.2 H 25.4 V 59.9 c 0,-9.7 5.1,-14.7 13,-14.7 7.9,0 12.6,5 12.6,14.7 v 40.2 H 71.8 V 53.5 C 71.8,36.9 62.6,26.7 46.9,26.7 36.4,26.7 30.2,32.2 25.4,38.3 V 1.9 H 4.6 Z"
     id="path12"
     style="fill:#ffffff;fill-opacity:1"
     inkscape:connector-curvature="0" />
</svg>
